X:1
T:Title
%%score { ( 1 3 ) | ( 2 4 ) }
L:1/8
M:9/8
K:D
V:1 treble nm="Grand Piano"
V:3 treble 
V:2 bass 
V:4 bass 
V:1
 z3 z3[Q:1/4=100] FFF | F3 D3 F[EG][FA] | [Fd]3 [FA]3 FFF | F3 DEF BAF | [CE]6 FFF | %5
 F3 D3 F[EG][FA] | [Fd]3 [FA]3 [FA][F^G][FA] | c3 ABc BA^G |[M:3/4] [A,CA]6 |[M:3/8] eed | %10
[M:9/8] [Bd]3 z3 z3 | [Fd]3 z3 z3 | [GB]3 z3 z3 | [FA]6 z3 | [CA]3[K:bass][K:treble] z3 C3 | %15
 [GB]-[DG-B-][DGB] [DFA]3 FAd | [Gc]-[EG-c-][EGc] c2 B ABc |[M:3/4] [Fd]6 |] %18
V:2
 z3 z3 [D,A,D][D,A,D][D,A,D] | [D,A,D]3 [D,F,]3 [D,A,D][D,A,][D,D] | %2
 [D,A,]3 [D,D]3 [D,A,D][D,A,D][D,A,D] | [D,A,D]3 [D,F,][D,G,D][D,A,D] [D,G,D][D,F,D][D,A,D] | %4
 [A,,A,]6 [D,A,D][D,A,D][D,A,D] | [D,A,D]3 [D,F,]3 [D,A,D][D,A,][D,D] | %6
 [D,A,]3 [D,D]3 [D,A,][D,B,][D,A,] | [E,A,E]3 [E,CE][E,B,E][E,A,E] [E,^G,D][E,A,C][E,B,D] | %8
[M:3/4] A,,6 |[M:3/8][K:treble] ccB |[M:9/8] A,A,A, A2 A A^G=G | D,D,D, D,3 D[K:treble]EF | %12
 G,G,G, G2 A z A[K:bass]G, | D,D,D, .D,3 DCD | [A,,E,]A,,A,, z2 D z[K:treble] FG | %15
 D,D,D, D,3 D[K:treble]FF | A,A,A, G2 G GG[A,G] |[M:3/4][K:bass] [D,A,]D, D, D,3 |] %18
V:3
 x9 | x9 | x9 | x9 | x9 | x9 | x9 | x9 |[M:3/4] x6 |[M:3/8] x3 |[M:9/8] EEE c2 c cBc | %11
 DA,A, [DFA]3 FGA | DDD B2 c [Bd]c[DGB] | DDD .D3 FEF | z[K:bass] E,E,[K:treble] [CE]2 F [EG]AB | %15
 .D3 z3 z3 | .E3 z3 z3 |[M:3/4] z A, A, A,3 |] %18
V:4
 x9 | x9 | x9 | x9 | x9 | x9 | x9 | x9 |[M:3/4] x6 |[M:3/8][K:treble] x3 | %10
[M:9/8] z3 [A,E]3 [A,E]3 | x7[K:treble] x2 | z3 [G,D]3 .[G,D]3[K:bass] | x9 | %14
 z3 [A,,A,]3 A,,3[K:treble] | x7[K:treble] x2 | z3 [A,E]3 .[A,C]3 |[M:3/4][K:bass] x6 |] %18

